!!!COM: Claude Goudimel
!!!OMD: Psalm 47: Or sus, tous humains
**kern	**kern	**kern	**kern
*part4	*part3	*part2	*part1
*staff4	*staff3	*staff2	*staff1
*I"bassus	*I"tenor	*I"contra	*I"superius
*clefF3	*clefC3	*clefC2	*clefG2
*k[b-]	*k[b-]	*k[b-]	*k[b-]
!!LO:TX:omd:t=
*M2/2	*M2/2	*M2/2	*M2/2
*met(c|)	*met(c|)	*met(c|)	*met(c|)
=1	=1	=1	=1
1F	1c	1A	1f
=2	=2	=2	=2
1F	1A	1F	1c
=3	=3	=3	=3
2D	2F	2A	2d
2C	2G	2c	2e
=4	=4	=4	=4
2F	2A	2c	2f
[2BB-X	[2B-X	[2d	[2f
=5	=5	=5	=5
2BB-]	2B-]	2d]	2f]
2F	2A	2c	2f
=6	=6	=6	=6
2C	2G	2c	2e
2C	2G	2c	2e
=7	=7	=7	=7
1F	1F	1A	1f
=8	=8	=8	=8
1r	1r	1r	1r
=9	=9	=9	=9
1F	1c	1f	1a
=10	=10	=10	=10
1A	1c	1e	1a
=11	=11	=11	=11
2G	2d	2g	2b-X
2c	2e	2g	2cc
=12	=12	=12	=12
2F	2f	2a	2cc
[2F	[2c	[2f	[2a
=13	=13	=13	=13
2F]	2c]	2f]	2a]
2D	2d	2f	2a
=14	=14	=14	=14
2G	2B-X	2d	2g
2C	2c	2e	2g
=15	=15	=15	=15
1F	1A	1c	1f
=16	=16	=16	=16
1r	1r	1r	1r
=17	=17	=17	=17
1F	1F	1c	1f
=18	=18	=18	=18
1C	1G	1c	1e
=19	=19	=19	=19
2F	2A	2c	2f
2BB-X	2B-X	2d	2f
=20	=20	=20	=20
2F	2A	2c	2f
[2C	[2G	[2c	[2e
=21	=21	=21	=21
2C]	2G]	2c]	2e]
2D	2F	2A	2d
=22	=22	=22	=22
2BB-X	2F	2B-	2d
2C	2E	2G	2c
=23	=23	=23	=23
1F	1F	1A	1c
=24	=24	=24	=24
1r	1r	1r	1r
=25	=25	=25	=25
1F	1c	1f	1a
=26	=26	=26	=26
1BB-X	1d	1f	1b-X
=27	=27	=27	=27
2F	2c	2f	2a
2G	2B-X	2d	2g
=28	=28	=28	=28
2D	2A	2d	2f#X
[2D	[2A	[2d	[2f#X
=29	=29	=29	=29
2D]	2A]	2d]	2f#]
2E-X	2G	2B-	2g
=30	=30	=30	=30
2D	2A	2d	2f#X
2G	2B-X	2d	2g
=31	=31	=31	=31
1F	1c	1f	1a
=32	=32	=32	=32
1r	1r	1r	1r
=33	=33	=33	=33
1F	1f	1c	1a
=34	=34	=34	=34
1C	1e	1g	1cc
=35	=35	=35	=35
2G	2d	2g	2b-X
2G	2d	2g	2b-X
=36	=36	=36	=36
2A	2c	2e	2a
[2D	[2d	[2f	[2a
=37	=37	=37	=37
2D]	2d]	2f]	2a]
2F	2c	2f	2a
=38	=38	=38	=38
2BB-X	2B-X	2d	2f
2F	2A	2c	2f
=39	=39	=39	=39
1C	1G	1c	1e
=40	=40	=40	=40
1r	1r	1r	1r
=41	=41	=41	=41
1F	1F	1A	1c
=42	=42	=42	=42
1F	1A	1c	1f
=43	=43	=43	=43
2F	2c	2A	2f
2BB-X	2B-X	2d	2f
=44	=44	=44	=44
2F	2A	2c	2f
[2C	[2G	[2c	[2e
=45	=45	=45	=45
2C]	2G]	2c]	2e]
2D	2F	2A	2d
=46	=46	=46	=46
2BB-X	2F	2B-	2d
2C	2E	2G	2c
=47	=47	=47	=47
1F;	1F;	1A;	1c;
==	==	==	==
*-	*-	*-	*-
!!!software: music21 v.9.7.1
!!!software: music21 v.9.1.0
!!!RDF**kern: > = above
!!!RDF**kern: < = below
